src/content/images/providers/apple.svg

<svg height="35" viewBox="0 0 28 35" width="28" xmlns="http://www.w3.org/2000/svg"><path d="m22.8145925 17.8235784c.0471455 5.0770981 4.4539027 6.7666086 4.5027256 6.7881146-.0372611.1190919-.7041275 2.4076559-2.3216917 4.7715808-1.3983705 2.0437908-2.8495776 4.0799736-5.1357454 4.122147-2.2463907.0413945-2.9687294-1.3320554-5.5369915-1.3320554-2.5674833 0-3.3700352 1.2899419-5.49649538 1.3735099-2.20673332.0835679-3.88719815-2.2099683-5.29707052-4.2462709-2.88102792-4.1652188-5.08272919-11.7699033-2.12640025-16.9031926 1.46863952-2.54921216 4.09321264-4.16348158 6.94195158-4.20487617 2.16695617-.04133469 4.21224457 1.45785655 5.53699147 1.45785655 1.3239082 0 3.8093811-1.80291136 6.4223326-1.53812972 1.0938716.04552806 4.1644401.44186185 6.1360449 3.32786194-.158869.0984844-3.6637512 2.1388605-3.6256514 6.383454m-4.2218294-12.46696196c1.1715689-1.41813931 1.960103-3.39232007 1.7449828-5.35661644-1.6887317.06787276-3.7307852 1.12532197-4.9420714 2.54268251-1.0855448 1.25513686-2.0362427 3.26406271-1.779728 5.18948051 1.882286.14562991 3.8051878-.95650869 4.9768166-2.37554658" fill="#ff0045" transform="translate(.122093 .505814)"/></svg>

<?xml version="1.0" encoding="UTF-8"?>
<svg width="28px" height="35px" viewBox="0 0 28 35" version="1.1" xmlns="http://www.w3.org/2000/svg" xmlns:xlink="http://www.w3.org/1999/xlink">
    <!-- Generator: Sketch 58 (84663) - https://sketch.com -->
    <title>Shape</title>
    <desc>Created with Sketch.</desc>
    <g id="Rework6.0" stroke="none" stroke-width="1" fill="none" fill-rule="evenodd">
        <g id="iPhone-8" transform="translate(-60.000000, -929.000000)" fill="#FF0045" fill-rule="nonzero">
            <g id="Group-17" transform="translate(24.000000, 920.000000)">
                <g id="apple-black" transform="translate(36.122093, 9.505814)">
                    <path d="M22.8145925,17.8235784 C22.861738,22.9006765 27.2684952,24.590187 27.3173181,24.611693 C27.280057,24.7307849 26.6131906,27.0193489 24.9956264,29.3832738 C23.5972559,31.4270646 22.1460488,33.4632474 19.859881,33.5054208 C17.6134903,33.5468153 16.8911516,32.1733654 14.3228895,32.1733654 C11.7554062,32.1733654 10.9528543,33.4633073 8.82639412,33.5468753 C6.6196608,33.6304432 4.93919597,31.336907 3.5293236,29.3006044 C0.64829568,25.1353856 -1.55340559,17.5307011 1.40292335,12.3974118 C2.87156287,9.84819964 5.49613599,8.23393022 8.34487493,8.19253563 C10.5118311,8.15120094 12.5571195,9.65039218 13.8818664,9.65039218 C15.2057746,9.65039218 17.6912475,7.84748082 20.304199,8.11226246 C21.3980706,8.15779052 24.4686391,8.55412431 26.4402439,11.4401244 C26.2813749,11.5386088 22.7764927,13.5789849 22.8145925,17.8235784 M18.5927631,5.35661644 C19.764332,3.93847713 20.5528661,1.96429637 20.3377459,0 C18.6490142,0.0678727597 16.6069607,1.12532197 15.3956745,2.54268251 C14.3101297,3.79781937 13.3594318,5.80674522 13.6159465,7.73216302 C15.4982325,7.87779293 17.4211343,6.77565433 18.5927631,5.35661644" id="Shape"></path>
                </g>
            </g>
        </g>
    </g>
</svg>
